X:1
T:There Is Peace
T:William Howard Doane
T:There Is Peace
T:Public Domain
T:Public Domain
T:Public Domain
C:William Howard Doane
Z:Public Domain
%%score ( 1 2 ) ( 3 4 )
L:1/8
M:4/4
K:F
V:1 treble 
V:2 treble 
V:3 bass 
V:4 bass 
V:1
 F>[FG] | [FA]>[FA] [FA]>[FA] [FA]2 [F^G]>[FA] | [Fc]6 [FA]>[FA] | %3
w: 1.~Thro’ the|ri- fice of Je- sus the Lamb,|Thro’ the blood|
w: 2.~Thro’ the|ri- fice of Je- sus the Lamb,|Thro’ the blood|
w: 3.~Thro’ the|ri- fice of Je- sus the Lamb,|Un- to all|
w: 4.~As in|dam we are ru- ined and lost,|So in Christ|
 [EG]2 [EG]>[EG] [EG]2 [DF]>[EG] | [FA]6 F>[FG] | [FA]>[FA] [FA]>[FA] [FA]2 [F^G]>[FA] | %6
w: full a- tone- ment is made,|He has car-|all our bur- dens of sor- row,|
w: of the Lamb that was slain,|We are res-|from our bond- age for- ev- er,|
w: who re- pent and be- lieve,|What a com-|in the prom- ise He left us—|
w: shall our life be re- stored,|And the Fa-|in His mer- cy will own us|
 [FB]2 [Fd]4 [Fc]>[FA] | [EG]2 [EG]>[EG] [FA]2 [F=B][FB] | [Ec]6 ||"^Refrain" A>B | %10
w: And on Him our|trans- gress- ions were laid. *|||
w: And the way of|re- demp- tion is plain. There|is|peace thro’|
w: Thro’ the blood we|may par- don re- ceive. *|||
w: Thro’ the blood of|our cru- ci- fied Lord. *|||
 (z2 F>F F2) =B>d | z2 F>F F2 [Af]>[Af] | [Ge]>[Fd] [Ec]>[EG] [GB]2 [Ec]>[GB] | [FA]6 A>B | %14
w: ||||
w: * * * the blood,|* * * the pre-|* blood He of- fers so free;|There is peace|
w: ||||
w: ||||
 (z2 F>E F2) [Fd]>[Ge] | F2 F>F F2 [Fe]>[Fd] | [Fc]>[FA] F>[GB] [FA]2 [EG]>[EG] | F6 |] %18
w: ||||
w: * * * thro’ the|* * * * O that|cious blood is flow- ing for me.||
w: ||||
w: ||||
V:2
 F3/2 x/ | x8 | x8 | x8 | x6 F3/2 x/ | x8 | x8 | x8 | x6 || x2 | c6 x2 | c6 x2 | x8 | x8 | c6 x2 | %15
w: sac-||||ried|||||||||||
w: sac-||||cued||||||Thro’|cious|||blood,|
w: sac-||||fort|||||||||||
w: A-||||ther|||||||||||
 f6 x2 | x2 F3/2 x9/2 | F6 |] %18
w: |||
w: pre-|||
w: |||
w: |||
V:3
 [F,A,]>[F,B,] | [F,C]>[F,C] [F,C]>[F,C] [F,C]2 [F,=B,]>[F,C] | %2
w: ~ ~|~ ~ ~ ~ ~ ~ ~|
 [F,A,]2 [F,A,]2 [F,A,]2 [F,C]>[F,C] | [C,C]2 [C,C]>[C,C] [C,C]2 [C,C]>[C,C] | %4
w: ~ ~ ~ ~ ~|~ ~ ~ ~ ~ ~|
 [F,C]2 [F,C]2 [F,C]2 [F,A,]>[F,B,] | [F,C]>[F,C] [F,C]>[F,C] [F,C]2 [F,=B,]>[F,C] | %6
w: ~ ~ ~ ~ ~|~ ~ ~ ~ ~ ~ ~|
 [D,B,]2 [B,,B,]4 [F,A,]>[F,C] | [G,C]2 [G,C]>[G,C] [G,=B,]2 [G,D][G,D] | [C,C]6 || F,>G, | %10
w: ~ ~ ~ ~|~ ~ ~ ~ ~ ~|~|~ ~|
 z2 F,>F, F,2 ^G,>B, | z2 F,>F, F,2 [F,C]>[F,C] | [C,C]>[C,C] [C,C]>[C,C] [C,C]2 [C,C]>[C,C] | %13
w: There is peace ~ ~|~ Thro’ the blood ~|* ~ ~ ~ ~ ~ ~|
 [F,C]2 [F,C]2 [F,C]2 z2 | z2 [F,A,]>[G,B,] [A,C]2 B,>[B,^C] | %15
w: ~ ~ so|free; There is peace *|
 [B,D]2 [B,D]>[B,D] [B,D]2 [B,,C]>[B,,C] | [C,A,]>[C,C] [D,A,]>[B,,D] [C,C]2 [C,B,]>[C,B,] | %17
w: ||
 [F,A,]6 |] %18
w: |
V:4
 x2 | x8 | x8 | x8 | x8 | x8 | x8 | x8 | x6 || x2 | A,6 x2 | A,6 x2 | x8 | x8 | x6 B,3/2 x/ | x8 | %16
w: ||||||||||~|~|||||
 x8 | x6 |] %18
w: ||

